X: 9472
T: Darby The Driver
R: jig
M: 6/8
K: Dmajor
|:G|EAA ABd|ege dBA|GEG GAB|dBA GED|
EAA ABd|ege def|g2d ege|dBA A2:|
|:d|eag egd|eaa bag|efg d2g|efg ged|
eag egd|eaa bag|efg edB|BAG A2:|

